X: 15774
T: Good Morning To Your Nightcap
R: reel
M: 4/4
K: Adorian
|:e4 d4|cBcd edd2|e=fec dedB|cABG EGD2|
e4 d4|cBcd edd2|egfa gedB|cABG EGD2:|
|:EAAc BGGB|cBcd ed d2|EAAc BGGB|cABG EGD2|
EAAc BGGB|cBcd ed d2|egfa gedB|cABG EGD2:|

